X:116
T:48 bar Jigs 3 - Tarantella Napoletana
T:The Valiant
S:Simon Ritchie
M:6/8
L:1/8
Z:J.A.
K:G
G2A| "G"B2B BAG|"D"B2A ABA| "Em"G2G GAG| "Bm"G2F F2D|
"C"E2E EFG|1"G"E2D D2D| "C"G2G GAB|"D"B2A A3:|2 "C"BAG "D"FED| "C"EFG "D"AGF|"G"F2G G3:||
"G"d3 "C"e3|"G"dcB "D"AGF| "Em"G2G GAB|"D"B2A A3| "G"dBd "C"ece|"G"dcB "D"AGF| "C"G2G GAB|"D"A2G "G"G3:|
|:"Em"E2E EFG|"D"E2D D2D|"G"G2G GAB| "D"B2A A2D| "C"E2E EFG|"G"BAG "D"FED| "C"EFG "D"AGF| "G"F2G G3:||
T:Tarantella Napoletana
K:Em
e2e | "Em"B2B e2e | B2B B2B | "Am"c2c cdc | "G"c2B BcB |
"B7"B2A ABA | "Em"A2G GAG | "B7"G2F G2F | "Em"E2z :|
E2F | "Em"GFG "Am"AGF | "Em"GFG "Am"AGF | "Em"GFE "B7"^DEF | "Em"E2z E2F |
"G"GFG "Am"AGA | "G/B"BAB "C"cBA | "Em"GFE "B7"^DEF | "Em"E2z :|
"D7"DEF | "G"GFG BGB | d2d ded | "D7"d2c cdc | "G"c2B "D7"DEF | "G"GFG BGB | d2d d^cd | "D7"fed cBA | "G"G2z :|
%%newpage

